hero/solid/magnifying-glass-circle.svg

<svg width="24" height="24" viewBox="0 0 24 24" fill="none" xmlns="http://www.w3.org/2000/svg">
<path d="M8.25 10.875C8.25 9.42525 9.42525 8.25 10.875 8.25C12.3247 8.25 13.5 9.42525 13.5 10.875C13.5 11.6001 13.207 12.2553 12.7312 12.7312C12.2553 13.207 11.6001 13.5 10.875 13.5C9.42525 13.5 8.25 12.3247 8.25 10.875Z" fill="#0F172A"/>
<path fill-rule="evenodd" clip-rule="evenodd" d="M12 2.25C6.61522 2.25 2.25 6.61522 2.25 12C2.25 17.3848 6.61522 21.75 12 21.75C17.3848 21.75 21.75 17.3848 21.75 12C21.75 6.61522 17.3848 2.25 12 2.25ZM10.875 6.75C8.59683 6.75 6.75 8.59683 6.75 10.875C6.75 13.1532 8.59683 15 10.875 15C11.7428 15 12.5487 14.7315 13.2131 14.2737L15.2197 16.2803C15.5126 16.5732 15.9874 16.5732 16.2803 16.2803C16.5732 15.9874 16.5732 15.5126 16.2803 15.2197L14.2737 13.2131C14.7315 12.5487 15 11.7428 15 10.875C15 8.59683 13.1532 6.75 10.875 6.75Z" fill="#0F172A"/>
</svg>

<svg viewBox="0 0 24 24" xmlns="http://www.w3.org/2000/svg"><g><path d="M8.25 10.87v0c0-1.45 1.17-2.625 2.625-2.625 1.44 0 2.625 1.17 2.625 2.625v0c0 1.44-1.18 2.625-2.625 2.625 -1.45 0-2.625-1.18-2.625-2.625Z"/><path fill-rule="evenodd" d="M12 2.25c-5.385 0-9.75 4.36-9.75 9.75 0 5.38 4.36 9.75 9.75 9.75 5.38 0 9.75-4.37 9.75-9.75 0-5.39-4.37-9.75-9.75-9.75Zm-1.125 4.5v0c-2.28 0-4.13 1.84-4.13 4.12 0 2.27 1.84 4.12 4.12 4.12 .83-.01 1.64-.26 2.33-.73l2 2v0c.28.3.75.31 1.06.03 .3-.29.31-.76.03-1.06 -.02-.02-.03-.03-.04-.04l-2.01-2.01v0c1.29-1.88.81-4.45-1.07-5.74 -.69-.48-1.51-.73-2.34-.73Z"/></g></svg>
